X: 166
T: Gay Gordon's, a couple dance
C:
R: march
B: NEFR #166
Z: 2012 John Chambers <jc:trillian.mit.edu>
N: The title really should be "The Gay Gordons", a plural that refers to the entire clan.
M: C|
L: 1/8
K: A
E2 |\
"A"A2 AB c2 A2 | "D"dc de f2 ed | "A"e2 a2 ef ed | "E7"c2 B2 B2 E2 |\
"A"A2 AB dc BA | "D"dc de ((3fgf) ed | "A"e2 a2 "E7"ef ed | "A"c2 A2 A2 e2 |]
[|\
"A"a4 e2 fg | a2 e2 c2 A2 | a2 a2 ef ed | "E7"c2 B2 B2 e2 |\
"A"a4 e2 fg | a2 e2 c2 A2 | "Bm"d2 B2 "E7"ef ed | "A"c2 A2 A2 |]
